icon-themes/elementary_svg/cmd/lc_underlinedouble.svg

<?xml version="1.0" encoding="UTF-8" standalone="no"?>
<svg
   xmlns:dc="http://purl.org/dc/elements/1.1/"
   xmlns:cc="http://creativecommons.org/ns#"
   xmlns:rdf="http://www.w3.org/1999/02/22-rdf-syntax-ns#"
   xmlns:svg="http://www.w3.org/2000/svg"
   xmlns="http://www.w3.org/2000/svg"
   xmlns:xlink="http://www.w3.org/1999/xlink"
   xmlns:sodipodi="http://sodipodi.sourceforge.net/DTD/sodipodi-0.dtd"
   xmlns:inkscape="http://www.inkscape.org/namespaces/inkscape"
   width="24"
   height="24"
   id="svg3495"
   version="1.1"
   sodipodi:docname="lc_underlinedouble.svg"
   inkscape:export-filename="/home/rizmut/Dokumen/Rizmut/Github/libreoffice-style-elementary/images_elementary/cmd/lc_underlinedouble.png"
   inkscape:export-xdpi="96"
   inkscape:export-ydpi="96"
   inkscape:version="0.92.3 (unknown)">
  <sodipodi:namedview
     pagecolor="#ffffff"
     bordercolor="#666666"
     borderopacity="1"
     objecttolerance="10"
     gridtolerance="10"
     guidetolerance="10"
     inkscape:pageopacity="0"
     inkscape:pageshadow="2"
     inkscape:window-width="1366"
     inkscape:window-height="706"
     id="namedview54"
     showgrid="true"
     inkscape:snap-global="false"
     inkscape:zoom="9.8333333"
     inkscape:cx="0.9064389"
     inkscape:cy="9.0694314"
     inkscape:window-x="0"
     inkscape:window-y="0"
     inkscape:window-maximized="1"
     inkscape:current-layer="svg3495">
    <inkscape:grid
       type="xygrid"
       id="grid864" />
  </sodipodi:namedview>
  <defs
     id="defs3497">
    <clipPath
       clipPathUnits="userSpaceOnUse"
       id="clipPath3669">
      <path
         d="M 0,96 96,96 96,0 0,0 0,96 z"
         id="path3671" />
    </clipPath>
    <linearGradient
       xlink:href="#linearGradient3821"
       id="linearGradient3793"
       x1="12"
       y1="22"
       x2="12"
       y2="-2"
       gradientUnits="userSpaceOnUse"
       gradientTransform="translate(0,26)" />
    <linearGradient
       id="linearGradient3821">
      <stop
         style="stop-color:#555555;stop-opacity:1;"
         offset="0"
         id="stop3823" />
      <stop
         style="stop-color:#666666;stop-opacity:1;"
         offset="1"
         id="stop3825" />
    </linearGradient>
    <linearGradient
       y2="-2"
       x2="12"
       y1="22"
       x1="12"
       gradientTransform="translate(31.883514,24.756453)"
       gradientUnits="userSpaceOnUse"
       id="linearGradient3011"
       xlink:href="#linearGradient3821" />
    <linearGradient
       xlink:href="#linearGradient3821"
       id="linearGradient3800"
       x1="12"
       y1="22"
       x2="12"
       y2="0"
       gradientUnits="userSpaceOnUse"
       gradientTransform="translate(-17.5,0.5)" />
    <linearGradient
       xlink:href="#linearGradient3821"
       id="linearGradient3810"
       gradientUnits="userSpaceOnUse"
       x1="12"
       y1="22"
       x2="12"
       y2="0" />
    <linearGradient
       xlink:href="#linearGradient3821"
       id="linearGradient3824"
       x1="12"
       y1="22"
       x2="12"
       y2="0"
       gradientUnits="userSpaceOnUse" />
    <linearGradient
       xlink:href="#linearGradient3821"
       id="linearGradient3843"
       gradientUnits="userSpaceOnUse"
       x1="12"
       y1="22"
       x2="12"
       y2="0" />
    <linearGradient
       xlink:href="#linearGradient3821"
       id="linearGradient3854"
       gradientUnits="userSpaceOnUse"
       x1="12"
       y1="22"
       x2="12"
       y2="0"
       gradientTransform="matrix(1,0,0,0.66667,1,9.999935)" />
    <radialGradient
       xlink:href="#linearGradient3952"
       id="radialGradient3960"
       gradientUnits="userSpaceOnUse"
       gradientTransform="matrix(1,0,0,0.75,-21,12.375)"
       cx="40"
       cy="43.5"
       fx="40"
       fy="43.5"
       r="2" />
    <linearGradient
       id="linearGradient3952">
      <stop
         style="stop-color:#000000;stop-opacity:1;"
         offset="0"
         id="stop3954" />
      <stop
         style="stop-color:#000000;stop-opacity:0;"
         offset="1"
         id="stop3956" />
    </linearGradient>
    <radialGradient
       xlink:href="#linearGradient3944"
       id="radialGradient3957"
       gradientUnits="userSpaceOnUse"
       gradientTransform="matrix(1,0,0,0.75,-4,12.375)"
       cx="9"
       cy="43.5"
       fx="9"
       fy="43.5"
       r="2" />
    <linearGradient
       id="linearGradient3944">
      <stop
         style="stop-color:#000000;stop-opacity:1;"
         offset="0"
         id="stop3946" />
      <stop
         style="stop-color:#000000;stop-opacity:0;"
         offset="1"
         id="stop3948" />
    </linearGradient>
    <linearGradient
       xlink:href="#linearGradient3960"
       id="linearGradient3954"
       gradientUnits="userSpaceOnUse"
       gradientTransform="translate(-8,1.5)"
       x1="25"
       y1="45"
       x2="25"
       y2="42" />
    <linearGradient
       id="linearGradient3960">
      <stop
         style="stop-color:#000000;stop-opacity:0;"
         offset="0"
         id="stop3962" />
      <stop
         id="stop3970"
         offset="0.5"
         style="stop-color:#000000;stop-opacity:1;" />
      <stop
         style="stop-color:#000000;stop-opacity:0;"
         offset="1"
         id="stop3964" />
    </linearGradient>
    <linearGradient
       y2="42"
       x2="25"
       y1="45"
       x1="25"
       gradientTransform="translate(-8,1.5)"
       gradientUnits="userSpaceOnUse"
       id="linearGradient3994"
       xlink:href="#linearGradient3960" />
    <linearGradient
       xlink:href="#linearGradient3960"
       id="linearGradient4038"
       gradientUnits="userSpaceOnUse"
       gradientTransform="translate(-9,-1)"
       x1="25"
       y1="45"
       x2="25"
       y2="42" />
    <radialGradient
       xlink:href="#linearGradient3944"
       id="radialGradient4041"
       gradientUnits="userSpaceOnUse"
       gradientTransform="matrix(1,0,0,0.75,-4,9.875)"
       cx="9"
       cy="43.5"
       fx="9"
       fy="43.5"
       r="2" />
    <radialGradient
       xlink:href="#linearGradient3952"
       id="radialGradient4044"
       gradientUnits="userSpaceOnUse"
       gradientTransform="matrix(1,0,0,0.75,-22,9.875)"
       cx="40"
       cy="43.5"
       fx="40"
       fy="43.5"
       r="2" />
    <radialGradient
       xlink:href="#linearGradient3952"
       id="radialGradient4051"
       gradientUnits="userSpaceOnUse"
       gradientTransform="matrix(0.87733142,0,0,0.75,-17.142285,-12.625)"
       cx="40"
       cy="43.5"
       fx="40"
       fy="43.5"
       r="2" />
    <radialGradient
       xlink:href="#linearGradient3944"
       id="radialGradient4053"
       gradientUnits="userSpaceOnUse"
       gradientTransform="matrix(0.87733142,0,0,0.75,-1.3503192,-12.625)"
       cx="9"
       cy="43.5"
       fx="9"
       fy="43.5"
       r="2" />
    <linearGradient
       xlink:href="#linearGradient3960"
       id="linearGradient4055"
       gradientUnits="userSpaceOnUse"
       gradientTransform="matrix(0.87733142,0,0,1,-5.7369763,-23.5)"
       x1="25"
       y1="45"
       x2="25"
       y2="42" />
    <radialGradient
       xlink:href="#linearGradient3952"
       id="radialGradient4970"
       gradientUnits="userSpaceOnUse"
       gradientTransform="matrix(1,0,0,0.75,-20,-9.125)"
       cx="40"
       cy="43.5"
       fx="40"
       fy="43.5"
       r="2" />
    <radialGradient
       xlink:href="#linearGradient3944"
       id="radialGradient4972"
       gradientUnits="userSpaceOnUse"
       gradientTransform="matrix(1,0,0,0.75,-6,-9.125)"
       cx="9"
       cy="43.5"
       fx="9"
       fy="43.5"
       r="2" />
    <linearGradient
       xlink:href="#linearGradient3960"
       id="linearGradient4974"
       gradientUnits="userSpaceOnUse"
       gradientTransform="translate(-11,-20)"
       x1="25"
       y1="45"
       x2="25"
       y2="42" />
    <linearGradient
       inkscape:collect="always"
       xlink:href="#linearGradient3821"
       id="linearGradient882"
       x1="12.02772"
       y1="25.544678"
       x2="11.427851"
       y2="4.3921361"
       gradientUnits="userSpaceOnUse"
       gradientTransform="matrix(1.0027297,0,0,1.0027297,-0.01363916,-0.0545321)" />
    <linearGradient
       inkscape:collect="always"
       xlink:href="#linearGradient3821"
       id="linearGradient954"
       gradientUnits="userSpaceOnUse"
       gradientTransform="matrix(1,0,0,0.66667,1,9.999935)"
       x1="12"
       y1="22"
       x2="12"
       y2="0" />
  </defs>
  <metadata
     id="metadata3500">
    <rdf:RDF>
      <cc:Work
         rdf:about="">
        <dc:format>image/svg+xml</dc:format>
        <dc:type
           rdf:resource="http://purl.org/dc/dcmitype/StillImage" />
        <dc:title></dc:title>
      </cc:Work>
    </rdf:RDF>
  </metadata>
  <path
     style="opacity:0.2;fill:url(#radialGradient4970);fill-opacity:1;stroke:none"
     d="m 20,22 v 3 h 0.5 C 21.331,25 22,24.331 22,23.5 22,22.669 21.331,22 20.5,22 Z"
     id="path4964"
     inkscape:connector-curvature="0" />
  <path
     style="opacity:0.2;fill:url(#radialGradient4972);fill-opacity:1;stroke:none"
     d="M 2.40625,22 C 1.6271875,22 1,22.627187 1,23.40625 v 0.1875 C 1,24.372813 1.6271875,25 2.40625,25 H 3 v -3 z"
     id="path4966"
     inkscape:connector-curvature="0" />
  <path
     style="opacity:0.2;fill:url(#linearGradient4974);fill-opacity:1;stroke:none"
     d="m 3,22 h 17 v 3 H 3 Z"
     id="path4968"
     inkscape:connector-curvature="0" />
  <g
     id="g944">
    <path
       inkscape:connector-curvature="0"
       id="rect3816"
       d="m 2.5,22.33333 v 1.33334 h 19 v -1.33334 z"
       style="fill:url(#linearGradient3854);fill-opacity:1;stroke:none;stroke-width:0.81649864" />
    <path
       inkscape:connector-curvature="0"
       id="path3833"
       d="m 2.392062,22.392057 v 1.215886 h 19.215876 v -1.215886 z"
       style="opacity:0.61000001;fill:none;stroke:#000000;stroke-width:0.78412396;stroke-miterlimit:4;stroke-dasharray:none;stroke-opacity:1" />
    <path
       inkscape:connector-curvature="0"
       style="opacity:0.2;fill:#ffffff;fill-opacity:1;stroke:none"
       d="m 3,22.5 v 1 h 18 v -1 z"
       id="path3835" />
  </g>
  <g
     id="g939"
     transform="translate(0,-2)">
    <path
       inkscape:connector-curvature="0"
       style="opacity:1;fill:url(#linearGradient882);fill-opacity:1;stroke:none;stroke-width:1.04807293;stroke-linejoin:round;stroke-miterlimit:4;stroke-dasharray:none;stroke-opacity:1"
       d="m 18.481509,4.5415496 v 9.5187024 q 0,1.630054 -0.788451,2.857624 -0.777648,1.227571 -2.257345,1.881601 -1.479696,0.654035 -3.499427,0.654035 -3.0457961,0 -4.7307048,-1.448935 Q 5.5206724,16.545578 5.5206724,14.020002 V 4.5415496 h 3.3374153 v 9.0055364 q 0,1.700486 0.7344478,2.49539 0.7344455,0.794902 2.4301575,0.794902 1.641705,0 2.376152,-0.794902 0.745248,-0.804965 0.745248,-2.515513 V 4.5415496 Z"
       id="path872" />
    <path
       inkscape:connector-curvature="0"
       style="opacity:0.2;fill:url(#radialGradient4051);fill-opacity:1;stroke:none;stroke-width:0.93665969"
       d="m 17.950972,18.5 v 3 h 0.438666 c 0.729062,0 1.315997,-0.669 1.315997,-1.5 0,-0.831 -0.586935,-1.5 -1.315997,-1.5 z"
       id="rect3940" />
    <path
       inkscape:connector-curvature="0"
       style="opacity:0.2;fill:url(#radialGradient4053);fill-opacity:1;stroke:none;stroke-width:0.93665969"
       d="m 6.0247482,18.5 c -0.6834961,0 -1.2337474,0.627187 -1.2337474,1.40625 v 0.1875 c 0,0.779063 0.5502513,1.40625 1.2337474,1.40625 h 0.5209155 v -3 z"
       id="rect3942" />
    <path
       inkscape:connector-curvature="0"
       style="opacity:0.2;fill:url(#linearGradient4055);fill-opacity:1;stroke:none;stroke-width:0.93665969"
       d="M 6.5456637,18.5 H 17.950972 v 3 H 6.5456637 Z"
       id="rect3938" />
    <path
       id="path884"
       d="m 5.5214844,4.5410156 v 9.4785154 c 0,0.210465 0.00784,0.41588 0.025391,0.615235 V 5.9824219 H 8.8574219 V 4.5410156 Z m 9.6230466,0 v 8.9863284 c 0,1.140365 -0.249262,1.978981 -0.746093,2.515625 -0.489632,0.529934 -1.280531,0.794922 -2.375,0.794922 -1.130475,0 -1.942011,-0.264988 -2.4316411,-0.794922 C 9.1684944,15.584822 8.9401564,14.88594 8.8828125,13.976562 v 1.011719 c 0,1.133658 0.2447431,1.964205 0.734375,2.494141 0.4896305,0.529935 1.3011655,0.794922 2.4316405,0.794922 1.09447,0 1.885369,-0.264987 2.375,-0.794922 0.496832,-0.536643 0.746094,-1.37526 0.746094,-2.515625 V 5.9824219 h 3.3125 V 4.5410156 Z"
       style="opacity:0.2;fill:#ffffff;fill-opacity:1;stroke:none;stroke-width:1.04807293;stroke-linejoin:round;stroke-miterlimit:4;stroke-dasharray:none;stroke-opacity:1"
       inkscape:connector-curvature="0" />
    <path
       id="path2"
       d="m 18.481509,4.5415496 v 9.5187024 q 0,1.630054 -0.788451,2.857624 -0.777648,1.227571 -2.257345,1.881601 -1.479696,0.654035 -3.499427,0.654035 -3.0457961,0 -4.7307048,-1.448935 Q 5.5206724,16.545578 5.5206724,14.020002 V 4.5415496 h 3.3374153 v 9.0055364 q 0,1.700486 0.7344478,2.49539 0.7344455,0.794902 2.4301575,0.794902 1.641705,0 2.376152,-0.794902 0.745248,-0.804965 0.745248,-2.515513 V 4.5415496 Z"
       style="opacity:0.61000001;fill:none;stroke:#191919;stroke-width:1.04807293;stroke-linejoin:round;stroke-miterlimit:4;stroke-dasharray:none;stroke-opacity:1"
       inkscape:connector-curvature="0" />
  </g>
  <g
     id="g952"
     transform="translate(0,-3)">
    <path
       style="fill:url(#linearGradient954);fill-opacity:1;stroke:none;stroke-width:0.81649864"
       d="m 2.5,22.33333 v 1.33334 h 19 v -1.33334 z"
       id="path946"
       inkscape:connector-curvature="0" />
    <path
       style="opacity:0.61000001;fill:none;stroke:#000000;stroke-width:0.78412396;stroke-miterlimit:4;stroke-dasharray:none;stroke-opacity:1"
       d="m 2.392062,22.392057 v 1.215886 h 19.215876 v -1.215886 z"
       id="path948"
       inkscape:connector-curvature="0" />
    <path
       id="path950"
       d="m 3,22.5 v 1 h 18 v -1 z"
       style="opacity:0.2;fill:#ffffff;fill-opacity:1;stroke:none"
       inkscape:connector-curvature="0" />
  </g>
</svg>

<?xml version="1.0" encoding="UTF-8" standalone="no"?>
<svg xmlns:rdf="http://www.w3.org/1999/02/22-rdf-syntax-ns#" xmlns="http://www.w3.org/2000/svg" height="24" width="24" version="1.1" xmlns:cc="http://creativecommons.org/ns#" xmlns:xlink="http://www.w3.org/1999/xlink" xmlns:dc="http://purl.org/dc/elements/1.1/">
 <defs>
  <linearGradient id="linearGradient3821">
   <stop stop-color="#555" offset="0"/>
   <stop stop-color="#666" offset="1"/>
  </linearGradient>
  <linearGradient id="linearGradient3854" xlink:href="#linearGradient3821" gradientUnits="userSpaceOnUse" x2="12" gradientTransform="matrix(1 0 0 .66667 1 9.9999)" y1="22" x1="12"/>
  <linearGradient id="linearGradient3952">
   <stop offset="0"/>
   <stop stop-opacity="0" offset="1"/>
  </linearGradient>
  <linearGradient id="linearGradient3960">
   <stop stop-opacity="0" offset="0"/>
   <stop offset=".5"/>
   <stop stop-opacity="0" offset="1"/>
  </linearGradient>
  <radialGradient id="radialGradient4051" xlink:href="#linearGradient3952" gradientUnits="userSpaceOnUse" cy="43.5" cx="40" gradientTransform="matrix(.87733 0 0 .75 -17.142 -12.625)" r="2"/>
  <radialGradient id="radialGradient4053" xlink:href="#linearGradient3952" gradientUnits="userSpaceOnUse" cy="43.5" cx="9" gradientTransform="matrix(.87733 0 0 .75 -1.3503 -12.625)" r="2"/>
  <linearGradient id="linearGradient4055" y2="42" xlink:href="#linearGradient3960" gradientUnits="userSpaceOnUse" x2="25" gradientTransform="matrix(.87733 0 0 1 -5.737 -23.5)" y1="45" x1="25"/>
  <radialGradient id="radialGradient4970" xlink:href="#linearGradient3952" gradientUnits="userSpaceOnUse" cy="43.5" cx="40" gradientTransform="matrix(1 0 0 .75 -20 -9.125)" r="2"/>
  <radialGradient id="radialGradient4972" xlink:href="#linearGradient3952" gradientUnits="userSpaceOnUse" cy="43.5" cx="9" gradientTransform="matrix(1 0 0 .75 -6 -9.125)" r="2"/>
  <linearGradient id="linearGradient4974" y2="42" xlink:href="#linearGradient3960" gradientUnits="userSpaceOnUse" x2="25" gradientTransform="translate(-11,-20)" y1="45" x1="25"/>
  <linearGradient id="linearGradient882" y2="4.3921" xlink:href="#linearGradient3821" gradientUnits="userSpaceOnUse" x2="11.428" gradientTransform="matrix(1.0027 0 0 1.0027 -.013639 -.054532)" y1="25.545" x1="12.028"/>
 </defs>
 <metadata>
  <rdf:RDF>
   <cc:Work rdf:about="">
    <dc:format>image/svg+xml</dc:format>
    <dc:type rdf:resource="http://purl.org/dc/dcmitype/StillImage"/>
    <dc:title/>
   </cc:Work>
  </rdf:RDF>
 </metadata>
 <g>
  <path opacity=".2" d="m20 22v3h0.5c0.831 0 1.5-0.669 1.5-1.5s-0.669-1.5-1.5-1.5z" fill="url(#radialGradient4970)"/>
  <path opacity=".2" d="m2.4062 22c-0.779 0-1.4062 0.627-1.4062 1.406v0.1875c0 0.779 0.6272 1.406 1.4062 1.406h0.5938v-3z" fill="url(#radialGradient4972)"/>
  <path opacity=".2" d="m3 22h17v3h-17z" fill="url(#linearGradient4974)"/>
 </g>
 <path d="m2.5 22.333v1.3333h19v-1.3333z" fill="url(#linearGradient3854)"/>
 <path opacity="0.61" d="m2.3921 22.392v1.2159h19.216v-1.2159z" stroke="#000" stroke-width=".78412" fill="none"/>
 <path opacity=".2" d="m3 22.5v1h18v-1z" fill="#fff"/>
 <g transform="translate(0,-2)">
  <g>
   <path d="m18.482 4.5415v9.5187q0 1.6301-0.78845 2.8576-0.77765 1.2276-2.2573 1.8816-1.4797 0.65404-3.4994 0.65404-3.0458 0-4.7307-1.4489-1.6853-1.458-1.6853-3.984v-9.4785h3.3374v9.0055q0 1.7005 0.73445 2.4954t2.4302 0.7949q1.6417 0 2.3762-0.7949 0.74525-0.80496 0.74525-2.5155v-8.9855z" fill="url(#linearGradient882)"/>
   <path opacity=".2" d="m17.951 18.5v3h0.43867c0.72906 0 1.316-0.669 1.316-1.5s-0.58694-1.5-1.316-1.5z" fill="url(#radialGradient4051)"/>
   <path opacity=".2" d="m6.0247 18.5c-0.6835 0-1.2337 0.62719-1.2337 1.4062v0.1875c0 0.77906 0.55025 1.4062 1.2337 1.4062h0.52092v-3z" fill="url(#radialGradient4053)"/>
   <path opacity=".2" d="m6.5457 18.5h11.405v3h-11.405z" fill="url(#linearGradient4055)"/>
   <path opacity=".2" d="m5.5215 4.541v9.4785c0 0.21046 0.00784 0.41588 0.025391 0.61524v-8.6526h3.3105v-1.4414zm9.623 0v8.9863c0 1.1404-0.24926 1.979-0.74609 2.5156-0.48963 0.52993-1.2805 0.79492-2.375 0.79492-1.1305 0-1.942-0.26499-2.4316-0.79492-0.4228-0.458-0.6511-1.157-0.7085-2.066v1.0117c0 1.1337 0.24474 1.9642 0.73438 2.4941 0.48963 0.52994 1.3012 0.79492 2.4316 0.79492 1.0945 0 1.8854-0.26499 2.375-0.79492 0.49683-0.53664 0.74609-1.3753 0.74609-2.5156v-8.9856h3.3125v-1.4414z" fill="#fff"/>
  </g>
  <path opacity="0.61" stroke-linejoin="round" d="m18.482 4.5415v9.5187q0 1.6301-0.78845 2.8576-0.77765 1.2276-2.2573 1.8816-1.4797 0.65404-3.4994 0.65404-3.0458 0-4.7307-1.4489-1.6853-1.458-1.6853-3.984v-9.4785h3.3374v9.0055q0 1.7005 0.73445 2.4954t2.4302 0.7949q1.6417 0 2.3762-0.7949 0.74525-0.80496 0.74525-2.5155v-8.9855z" stroke="#191919" stroke-width="1.0481" fill="none"/>
 </g>
 <g transform="translate(0,-3)">
  <path fill="url(#linearGradient3854)" d="m2.5 22.333v1.3333h19v-1.3333z"/>
  <path opacity="0.61" d="m2.3921 22.392v1.2159h19.216v-1.2159z" stroke="#000" stroke-width=".78412" fill="none"/>
  <path opacity=".2" d="m3 22.5v1h18v-1z" fill="#fff"/>
 </g>
</svg>
